X:32
T:Cranford Lodge THO4.032
M:9/8
L:1/8
Z:vmp. Peter Dunk 2010/11.from a transcription by Fynn Titford-Mock 2007
B:Thompson's Compleat Collection of 200 Favourite Country Dances Volume IV.
Q:3/8=120
K:C
g|f2 d (ec)A (BG)g|f2 d (ec)A (BG)g|\
f2 d (ec)A (BA)B|(ef)g (Be)d (cA):|
g|(fg)a (fd)A (BG)g|(fg)a (ef)d (cA)g|\
(fg)a (fd)c (BG)B|(ef)g (Be)d (cA)|]
